X:181
T: WENN DES FRUEHLINGS WACHEN ZIEHEN
N: B0216
O: Europa, Mitteleuropa, Deutschland
R: Jahreszeiten - Lied, Fruehling; Krieg
M: 2/4
L: 1/8
K: A
 | EccB | EBBA |
EAcA | ecB2 |
EccB | EBBA |
EAcA | ecB2 |
^dBeB | ^dBeE |
GA | GEAB | cA
dc | fdcB | c2B2 | A2z2

@@@ Tune index: 1984
